src/svgs/shrink.svg

<?xml version="1.0" encoding="UTF-8" standalone="no"?>
<!-- Generator: Adobe Illustrator 19.0.1, SVG Export Plug-In . SVG Version: 6.00 Build 0)  -->

<svg
   xmlns:dc="http://purl.org/dc/elements/1.1/"
   xmlns:cc="http://creativecommons.org/ns#"
   xmlns:rdf="http://www.w3.org/1999/02/22-rdf-syntax-ns#"
   xmlns:svg="http://www.w3.org/2000/svg"
   xmlns="http://www.w3.org/2000/svg"
   xmlns:sodipodi="http://sodipodi.sourceforge.net/DTD/sodipodi-0.dtd"
   xmlns:inkscape="http://www.inkscape.org/namespaces/inkscape"
   version="1.1"
   id="Layer_1"
   x="0px"
   y="0px"
   viewBox="0 0 20 20"
   style="enable-background:new 0 0 20 20;"
   xml:space="preserve"
   inkscape:version="0.91 r13725"
   sodipodi:docname="shrink.svg"><metadata
     id="metadata19"><rdf:RDF><cc:Work
         rdf:about=""><dc:format>image/svg+xml</dc:format><dc:type
           rdf:resource="http://purl.org/dc/dcmitype/StillImage" /><dc:title></dc:title></cc:Work></rdf:RDF></metadata><defs
     id="defs17" /><sodipodi:namedview
     pagecolor="#ffffff"
     bordercolor="#666666"
     borderopacity="1"
     objecttolerance="10"
     gridtolerance="10"
     guidetolerance="10"
     inkscape:pageopacity="0"
     inkscape:pageshadow="2"
     inkscape:window-width="2021"
     inkscape:window-height="908"
     id="namedview15"
     showgrid="false"
     inkscape:zoom="1"
     inkscape:cx="4.9501082"
     inkscape:cy="10.854747"
     inkscape:window-x="0"
     inkscape:window-y="0"
     inkscape:window-maximized="0"
     inkscape:current-layer="Layer_1"
     inkscape:snap-bbox="true"
     inkscape:bbox-paths="true"
     inkscape:snap-bbox-edge-midpoints="true"
     inkscape:bbox-nodes="true"
     inkscape:snap-bbox-midpoints="true"
     inkscape:object-paths="true"
     inkscape:object-nodes="true"><inkscape:grid
       type="xygrid"
       id="grid4147" /></sodipodi:namedview><path
     style="fill:#000000"
     d="M 4.2421875 3.4921875 A 0.750075 0.750075 0 0 0 3.71875 4.78125 L 5.9648438 7.0273438 L 4 8.5 L 4 9 L 8 9 C 8.500001 8.9999988 9 8.4999992 9 8 L 9 4 L 8.5 4 L 7.0175781 5.9550781 L 4.78125 3.71875 A 0.750075 0.750075 0 0 0 4.2421875 3.4921875 z M 15.734375 3.4921875 A 0.750075 0.750075 0 0 0 15.21875 3.71875 L 12.984375 5.953125 L 11.5 4 L 11 4 L 11 8 C 11 8.4999992 11.499999 8.9999988 12 9 L 16 9 L 16 8.5 L 14.035156 7.0273438 L 16.28125 4.78125 A 0.750075 0.750075 0 0 0 15.734375 3.4921875 z M 4 11 L 4 11.5 L 5.9648438 12.972656 L 3.71875 15.21875 A 0.75130096 0.75130096 0 1 0 4.78125 16.28125 L 7.0273438 14.035156 L 8.5 16 L 9 16 L 9 12 C 9 11.500001 8.500001 11.000001 8 11 L 4 11 z M 12 11 C 11.499999 11.000001 11 11.500001 11 12 L 11 16 L 11.5 16 L 12.972656 14.035156 L 15.21875 16.28125 A 0.75130096 0.75130096 0 1 0 16.28125 15.21875 L 14.035156 12.972656 L 16 11.5 L 16 11 L 12 11 z "
     id="path7" /></svg>

<?xml version="1.0" encoding="UTF-8" standalone="yes"?>
<svg viewBox="0 0 20 20">
  <path d="M4.2,3.5c-0.4,0-0.8,0.3-0.8,0.7c0,0.2,0.1,0.4,0.2,0.5L6,7L4,8.5V9h4c0.5,0,1-0.5,1-1V4H8.5L7,6L4.8,3.7
	C4.6,3.6,4.4,3.5,4.2,3.5z M15.7,3.5c-0.2,0-0.4,0.1-0.5,0.2L13,6l-1.5-2H11v4c0,0.5,0.5,1,1,1h4V8.5L14,7l2.2-2.2
	c0.3-0.3,0.3-0.8,0-1.1C16.2,3.6,15.9,3.5,15.7,3.5z M4,11v0.5L6,13l-2.2,2.2c-0.3,0.3-0.3,0.8,0,1.1s0.8,0.3,1.1,0L7,14l1.5,2H9v-4
	c0-0.5-0.5-1-1-1H4z M12,11c-0.5,0-1,0.5-1,1v4h0.5l1.5-2l2.2,2.2c0.3,0.3,0.8,0.3,1.1,0s0.3-0.8,0-1.1L14,13l2-1.5V11H12z"/>
</svg>
